X: 25
T: Morrison's
Z: Stuart Morison
S: https://thesession.org/tunes/71#setting53723
R: jig
M: 6/8
L: 1/8
K: Edor
|:~E3 BEB|EBE AFD|~E3 BEB|dcB AFD|
~E3 BEB|EBE AFD|~G3 FGA|dAG FED:|
Bee fee|aee fed|Bee fee|f/g/ag fed|
Bee fee|aee fed|gfe d2 A|BAG FED|
Bee fee|aee fed|Bee fee|f/g/af def|
~g3 gfe|def g2 d|edc d2 A|BAG FED||

%-------------------- TUNE SEPARATOR --------------------%

